X: 43591
T: Young Terrance McDonough
R: waltz
M: 3/4
K: Bminor
(B>A)|(F2B2) (c>A)|B4 (Bc)|(d2f2) (ed)|e4 e2|
(f2b2) (ba)|(f2a2) (f<e)|{e}d2c2B2 {AB}|A4 (AB)|
(d2c2).B2|.b4 (ab)|(c'2a2) (ab)|a4 (fe)|(d2c2).B2|
(^A2c2)(de)|(g2F2) (Bc)|B4::(B>A)|(F2B2).B2|.B4 (BA)|
(F2d2).d2|.d4 (cB)|(c2a2).a2|(bagf)(ed)|(fd'c'bag)|
f4 (fe)|d2d2 (ed)|c4 c2|(dcd).e.f.^g|a4 (fe)|.d2.d2.d2|
.c4 (de)|(f2B2) (Bc)|B4:|

